icons/book-open.svg

<?xml version="1.0" standalone="no"?><!-- Generator: Gravit.io --><svg xmlns="http://www.w3.org/2000/svg" xmlns:xlink="http://www.w3.org/1999/xlink" width="96" height="96"><path d=" M 44 32.8120215558258 L 20 26.8468041645258 L 20 26.8468041645258 L 20 73.7468041645258 C 20 74.2468041645258 20.4 74.7468041645258 20.9 74.84680416452579 L 44 80.6459673444458 L 44 32.8120215558258 Z  M 52 32.8120215558258 L 76 26.8468041645258 L 76 73.7468041645258 C 76 74.2468041645258 75.6 74.7468041645258 75.1 74.84680416452579 L 52 80.6459673444458 L 52 32.8120215558258 Z  M 20.6 18.7468041645258 L 44.8 24.8468041645258 Q 46.7456827825788 25.146804164525797 48 25.146804164525797 Q 49.2543172174212 25.146804164525797 51.2 24.8468041645258 L 75.4 18.7468041645258 Q 76.9 18.5468041645258 77.2 18.646804164525797 C 79 18.646804164525797 80.8 19.446804164525798 82.1 20.7468041645258 C 83.3 22.146804164525797 84 23.946804164525798 84 25.7468041645258 L 84 73.7468041645258 C 84 77.9468041645258 81.1 81.5468041645258 77.1 82.6468041645258 L 52.6 88.7468041645258 Q 49.80578298495696 89.2468041645258 48 89.2468041645258 Q 46.19421701504304 89.2468041645258 43.4 88.7468041645258 L 18.9 82.6468041645258 C 14.9 81.5468041645258 12 77.9468041645258 12 73.7468041645258 L 12 25.7468041645258 C 12 23.946804164525798 12.7 22.146804164525797 13.9 20.7468041645258 C 15.2 19.446804164525798 17 18.646804164525797 18.8 18.646804164525797 Q 19.1 18.5468041645258 20.6 18.7468041645258 L 20.6 18.7468041645258 Z  M 72.9 14.646804164525797 L 48 20.7468041645258 L 23.1 14.646804164525797 C 22 14.3468041645258 21.1 13.746804164525798 20.6 12.8468041645258 C 20 11.946804164525798 19.9 10.846804164525798 20.1 9.846804164525798 C 20.4 8.746804164525798 21 7.846804164525798 21.9 7.346804164525798 C 22.8 6.746804164525798 23.9 6.646804164525799 24.9 6.846804164525798 L 48 12.446804164525798 L 71.1 6.846804164525798 C 72.1 6.646804164525799 73.2 6.746804164525798 74.1 7.346804164525798 C 75 7.846804164525798 75.6 8.746804164525798 75.9 9.846804164525798 C 76.1 10.846804164525798 76 11.946804164525798 75.4 12.8468041645258 C 74.9 13.746804164525798 74 14.3468041645258 72.9 14.646804164525797 Z " fill-rule="evenodd" fill="#454545" stroke="none"/><mask id="_mask_YOUtJgXHzrR3knFj3wuZkZU7s2PpyHUD"><path d=" M 44 32.8120215558258 L 20 26.8468041645258 L 20 26.8468041645258 L 20 73.7468041645258 C 20 74.2468041645258 20.4 74.7468041645258 20.9 74.84680416452579 L 44 80.6459673444458 L 44 32.8120215558258 Z  M 52 32.8120215558258 L 76 26.8468041645258 L 76 73.7468041645258 C 76 74.2468041645258 75.6 74.7468041645258 75.1 74.84680416452579 L 52 80.6459673444458 L 52 32.8120215558258 Z  M 20.6 18.7468041645258 L 44.8 24.8468041645258 Q 46.7456827825788 25.146804164525797 48 25.146804164525797 Q 49.2543172174212 25.146804164525797 51.2 24.8468041645258 L 75.4 18.7468041645258 Q 76.9 18.5468041645258 77.2 18.646804164525797 C 79 18.646804164525797 80.8 19.446804164525798 82.1 20.7468041645258 C 83.3 22.146804164525797 84 23.946804164525798 84 25.7468041645258 L 84 73.7468041645258 C 84 77.9468041645258 81.1 81.5468041645258 77.1 82.6468041645258 L 52.6 88.7468041645258 Q 49.80578298495696 89.2468041645258 48 89.2468041645258 Q 46.19421701504304 89.2468041645258 43.4 88.7468041645258 L 18.9 82.6468041645258 C 14.9 81.5468041645258 12 77.9468041645258 12 73.7468041645258 L 12 25.7468041645258 C 12 23.946804164525798 12.7 22.146804164525797 13.9 20.7468041645258 C 15.2 19.446804164525798 17 18.646804164525797 18.8 18.646804164525797 Q 19.1 18.5468041645258 20.6 18.7468041645258 L 20.6 18.7468041645258 Z  M 72.9 14.646804164525797 L 48 20.7468041645258 L 23.1 14.646804164525797 C 22 14.3468041645258 21.1 13.746804164525798 20.6 12.8468041645258 C 20 11.946804164525798 19.9 10.846804164525798 20.1 9.846804164525798 C 20.4 8.746804164525798 21 7.846804164525798 21.9 7.346804164525798 C 22.8 6.746804164525798 23.9 6.646804164525799 24.9 6.846804164525798 L 48 12.446804164525798 L 71.1 6.846804164525798 C 72.1 6.646804164525799 73.2 6.746804164525798 74.1 7.346804164525798 C 75 7.846804164525798 75.6 8.746804164525798 75.9 9.846804164525798 C 76.1 10.846804164525798 76 11.946804164525798 75.4 12.8468041645258 C 74.9 13.746804164525798 74 14.3468041645258 72.9 14.646804164525797 Z " fill-rule="evenodd" fill="white" stroke="none"/></mask><path d=" M 44 32.8120215558258 L 20 26.8468041645258 L 20 26.8468041645258 L 20 73.7468041645258 C 20 74.2468041645258 20.4 74.7468041645258 20.9 74.84680416452579 L 44 80.6459673444458 L 44 32.8120215558258 Z  M 52 32.8120215558258 L 76 26.8468041645258 L 76 73.7468041645258 C 76 74.2468041645258 75.6 74.7468041645258 75.1 74.84680416452579 L 52 80.6459673444458 L 52 32.8120215558258 Z  M 20.6 18.7468041645258 L 44.8 24.8468041645258 Q 46.7456827825788 25.146804164525797 48 25.146804164525797 Q 49.2543172174212 25.146804164525797 51.2 24.8468041645258 L 75.4 18.7468041645258 Q 76.9 18.5468041645258 77.2 18.646804164525797 C 79 18.646804164525797 80.8 19.446804164525798 82.1 20.7468041645258 C 83.3 22.146804164525797 84 23.946804164525798 84 25.7468041645258 L 84 73.7468041645258 C 84 77.9468041645258 81.1 81.5468041645258 77.1 82.6468041645258 L 52.6 88.7468041645258 Q 49.80578298495696 89.2468041645258 48 89.2468041645258 Q 46.19421701504304 89.2468041645258 43.4 88.7468041645258 L 18.9 82.6468041645258 C 14.9 81.5468041645258 12 77.9468041645258 12 73.7468041645258 L 12 25.7468041645258 C 12 23.946804164525798 12.7 22.146804164525797 13.9 20.7468041645258 C 15.2 19.446804164525798 17 18.646804164525797 18.8 18.646804164525797 Q 19.1 18.5468041645258 20.6 18.7468041645258 L 20.6 18.7468041645258 Z  M 72.9 14.646804164525797 L 48 20.7468041645258 L 23.1 14.646804164525797 C 22 14.3468041645258 21.1 13.746804164525798 20.6 12.8468041645258 C 20 11.946804164525798 19.9 10.846804164525798 20.1 9.846804164525798 C 20.4 8.746804164525798 21 7.846804164525798 21.9 7.346804164525798 C 22.8 6.746804164525798 23.9 6.646804164525799 24.9 6.846804164525798 L 48 12.446804164525798 L 71.1 6.846804164525798 C 72.1 6.646804164525799 73.2 6.746804164525798 74.1 7.346804164525798 C 75 7.846804164525798 75.6 8.746804164525798 75.9 9.846804164525798 C 76.1 10.846804164525798 76 11.946804164525798 75.4 12.8468041645258 C 74.9 13.746804164525798 74 14.3468041645258 72.9 14.646804164525797 Z " fill-rule="evenodd" fill="none" stroke="none" stroke-width="16" mask="url(#_mask_YOUtJgXHzrR3knFj3wuZkZU7s2PpyHUD)"/></svg>

<svg xmlns="http://www.w3.org/2000/svg" width="96" height="96"><path d="M44 32.812l-24-5.965v46.9c0 .5.4 1 .9 1.1L44 80.646V32.812zm8 0l24-5.965v46.9c0 .5-.4 1-.9 1.1L52 80.646V32.812zM20.6 18.747l24.2 6.1q1.946.3 3.2.3 1.254 0 3.2-.3l24.2-6.1q1.5-.2 1.8-.1c1.8 0 3.6.8 4.9 2.1 1.2 1.4 1.9 3.2 1.9 5v48c0 4.2-2.9 7.8-6.9 8.9l-24.5 6.1q-2.794.5-4.6.5-1.806 0-4.6-.5l-24.5-6.1c-4-1.1-6.9-4.7-6.9-8.9v-48c0-1.8.7-3.6 1.9-5 1.3-1.3 3.1-2.1 4.9-2.1q.3-.1 1.8.1zm52.3-4.1l-24.9 6.1-24.9-6.1c-1.1-.3-2-.9-2.5-1.8-.6-.9-.7-2-.5-3 .3-1.1.9-2 1.8-2.5.9-.6 2-.7 3-.5l23.1 5.6 23.1-5.6c1-.2 2.1-.1 3 .5.9.5 1.5 1.4 1.8 2.5.2 1 .1 2.1-.5 3-.5.9-1.4 1.5-2.5 1.8z" fill-rule="evenodd" fill="#454545"/></svg>
